nes/_inc/art.svg

<svg xmlns="http://www.w3.org/2000/svg"><g fill="#1e1e1e"><path d="m184.671 119.554c-2.073 0-3.766 1.693-3.766 3.765v113.375c0 2.073 1.693 3.752 3.766 3.752h270.673c2.072 0 3.752-1.679 3.752-3.751v-113.375c0-2.073-1.68-3.765-3.753-3.765zm0 .913h270.673c1.58 0 2.839 1.274 2.839 2.853v113.375c0 1.579-1.26 2.838-2.839 2.838h-270.673c-1.58 0-2.853-1.26-2.853-2.839v-113.376c.001-1.579 1.274-2.852 2.853-2.851z" transform="matrix(.965926 -.258819 .258819 .965926 -35.683666 88.955543)"/><path d="m192.958 139.234c-1.291 0-2.339 1.063-2.339 2.354v87.615c0 1.29 1.048 2.354 2.339 2.354l256.74-.001c1.289 0 2.338-1.063 2.338-2.353v-87.615c0-1.291-1.049-2.354-2.338-2.354zm0 .913h256.74c.795 0 1.426.643 1.426 1.441v87.615c0 .797-.631 1.44-1.426 1.44h-256.74c-.797 0-1.427-.643-1.427-1.44v-87.615c0-.797.63-1.441 1.427-1.441z" transform="matrix(.965926 -.258818 .258818 .965926 -37.034826 89.482536)"/><path d="m282.884 192.272c-2.857 0-5.178 2.322-5.178 5.177v18.184c0 2.856 2.321 5.193 5.178 5.193h66.849c2.694 0 4.835-2.104 5.076-4.735h.101v-.456-18.186c0-2.855-2.322-5.176-5.177-5.176zm0 .913h66.849c2.363 0 4.264 1.902 4.264 4.264v17.729.456c0 2.362-1.901 4.279-4.264 4.279h-66.849c-2.362 0-4.264-1.917-4.264-4.28v-18.184c0-2.362 1.901-4.264 4.264-4.264z" transform="matrix(.965926 -.258819 .258819 .965926 -42.680872 88.904485)"/><path d="m282.298 195.338c-1.16 0-2.111.95-2.111 2.11v18.184c0 1.161.951 2.111 2.111 2.111h68.017c1.16 0 2.111-.951 2.111-2.111v-18.184c0-1.16-.951-2.109-2.111-2.109h-68.017zm0 .913h68.017c.667 0 1.198.533 1.198 1.197v18.185c0 .667-.531 1.199-1.198 1.199h-68.017c-.666 0-1.199-.532-1.199-1.199v-18.185c.001-.664.532-1.197 1.199-1.197z" transform="matrix(.965926 -.258819 .258819 .965926 -42.67872 88.903815)"/><path d="m275.14 175.862c-2.334 0-4.236 1.902-4.236 4.236v5.677c0 2.335 1.902 4.221 4.236 4.221h69.673c2.335 0 4.236-1.886 4.236-4.221v-5.677c0-2.334-1.901-4.236-4.236-4.236zm0 .914h69.673c1.842 0 3.324 1.482 3.324 3.322v5.677c0 1.84-1.482 3.308-3.324 3.308h-69.673c-1.84 0-3.323-1.469-3.323-3.308v-5.677c0-1.84 1.483-3.322 3.323-3.322z" transform="matrix(.965926 -.258819 .258819 .965926 -36.783324 86.460997)"/><path d="m270.8 159.66c-2.334 0-4.236 1.903-4.236 4.236v5.678c0 2.333 1.902 4.235 4.236 4.235h69.672c2.335 0 4.237-1.903 4.237-4.235v-5.678c0-2.334-1.902-4.236-4.237-4.236zm0 .913h69.672c1.843 0 3.324 1.484 3.324 3.323v5.678c0 1.84-1.482 3.322-3.324 3.322h-69.672c-1.841 0-3.323-1.482-3.323-3.322l-.001-5.678c0-1.839 1.483-3.323 3.324-3.323z" transform="matrix(.965926 -.258818 .258818 .965926 -32.739674 84.785569)"/><path d="m262.1 143.702v8.501c0 2.333 1.903 4.236 4.237 4.236h69.673c2.335 0 4.236-1.904 4.236-4.236v-8.501h-.912v8.501c0 1.841-1.483 3.323-3.324 3.323h-69.673c-1.84 0-3.324-1.483-3.324-3.323v-8.501z" transform="matrix(.965926 -.258819 .258819 .965926 -28.578875 83.062807)"/><path d="m287.342 224.559c-2.334 0-4.236 1.903-4.236 4.237v3.579h.913v-3.579c0-1.841 1.483-3.323 3.323-3.323h69.673c1.842 0 3.324 1.482 3.324 3.323v3.552h.913v-3.552c0-2.334-1.902-4.237-4.237-4.237z" transform="matrix(.965926 -.258819 .258819 .965926 -48.15362 91.170856)"/><path d="m367.59 173.899c-1.42 0-2.581 1.161-2.581 2.581v25.744c0 1.421 1.161 2.582 2.581 2.582h25.744c1.421 0 2.581-1.161 2.581-2.582v-25.744c0-1.42-1.16-2.581-2.581-2.581zm0 .913h25.744c.927 0 1.668.742 1.668 1.668v25.744c0 .927-.741 1.669-1.668 1.669h-25.744c-.926 0-1.669-.742-1.669-1.669v-25.744c0-.926.743-1.668 1.669-1.668z" transform="matrix(.965926 -.258818 .258818 .965926 -36.044028 104.922444)"/><path d="m380.458 176.738c-6.965 0-12.607 5.657-12.607 12.621s5.642 12.622 12.607 12.622c6.964 0 12.622-5.658 12.622-12.622s-5.658-12.621-12.622-12.621zm0 .912c6.472 0 11.708 5.238 11.708 11.709s-5.236 11.709-11.708 11.709c-6.47 0-11.695-5.238-11.695-11.709s5.224-11.709 11.695-11.709z" transform="matrix(.965926 -.258818 .258818 .965926 -36.045715 104.923589)"/><path d="m402.266 164.607c-1.42 0-2.581 1.161-2.581 2.581v25.744c0 1.421 1.162 2.582 2.581 2.582h25.744c1.421 0 2.582-1.161 2.582-2.582v-25.744c0-1.42-1.161-2.581-2.582-2.581zm0 .913h25.744c.927 0 1.668.743 1.668 1.668v25.744c0 .927-.741 1.669-1.668 1.669h-25.744c-.926 0-1.667-.742-1.667-1.669v-25.744c0-.925.741-1.668 1.667-1.668z" transform="matrix(.965926 -.258818 .258818 .965926 -32.457505 113.5806)"/><path d="m415.144 167.447c-6.964 0-12.622 5.657-12.622 12.622 0 6.964 5.658 12.622 12.622 12.622s12.607-5.658 12.607-12.622-5.643-12.622-12.607-12.622zm0 .913c6.471 0 11.694 5.238 11.694 11.709s-5.223 11.709-11.694 11.709-11.709-5.238-11.709-11.709 5.238-11.709 11.709-11.709z" transform="matrix(.965926 -.258818 .258818 .965926 -32.45978 113.580443)"/><path d="m240.337 139.042v2.924.456h.456 10.711.457v-.456-2.924h-.914v2.467h-9.798v-2.467z" transform="matrix(.965926 -.258818 .258818 .965926 -28.036717 68.503074)"/><path d="m291.882 215.962h-.002v-.455-.457h.002 13.934c2.202-.004 3.987-1.787 3.991-3.992-.004-2.205-1.787-3.986-3.991-3.992h-13.936c-2.204.006-3.987 1.787-3.992 3.992.004 2.205 1.788 3.988 3.992 3.992v.457.455c-2.708 0-4.903-2.194-4.903-4.905 0-2.709 2.195-4.904 4.903-4.904h13.936c2.709 0 4.904 2.195 4.904 4.904 0 2.711-2.197 4.905-4.904 4.905z" transform="matrix(.965926 -.258819 .258819 .965926 -44.442669 84.539266)"/><path d="m326.711 206.629v-.455-.457h13.936c2.203-.004 3.987-1.787 3.991-3.992-.004-2.205-1.788-3.987-3.991-3.992h-13.936c-2.204.005-3.988 1.787-3.992 3.992.004 2.205 1.788 3.988 3.992 3.992v.457.455c-2.708 0-4.904-2.195-4.904-4.905 0-2.709 2.195-4.904 4.904-4.904h13.936c2.707 0 4.903 2.195 4.903 4.904 0 2.71-2.196 4.905-4.903 4.905z" transform="matrix(.965926 -.258818 .258818 .965926 -40.840222 93.235592)"/><path d="m227.875 185.507c-2.594.001-4.706 2.11-4.706 4.705v11.155h-11.155c-2.595 0-4.705 2.112-4.706 4.706v15.989c.001 2.594 2.111 4.704 4.706 4.705h11.154v11.155c.001 2.594 2.112 4.705 4.707 4.706h15.974c2.594-.001 4.706-2.111 4.706-4.706v-11.155h11.168c2.595 0 4.705-2.111 4.705-4.706v-15.988c0-2.595-2.11-4.706-4.705-4.706h-11.167v-11.155c0-2.592-2.115-4.704-4.706-4.704h-15.974zm0 .912h15.974c2.103 0 3.793 1.692 3.794 3.793v11.611.456h.456 11.625c2.102 0 3.793 1.691 3.794 3.793v15.988c-.001 2.103-1.694 3.795-3.794 3.795h-11.625-.456v.456 11.61c-.001 2.102-1.692 3.793-3.794 3.794h-15.974c-2.102-.001-3.793-1.692-3.794-3.794v-11.61-.456h-.456-11.611c-2.102-.001-3.792-1.692-3.793-3.794v-15.989c0-2.102 1.692-3.793 3.793-3.793h11.611.454v-.456-11.611c.002-2.101 1.694-3.793 3.796-3.793zm0 1.912c-1.029.001-1.866.855-1.87 1.881v12.339.027.014c-.004.275-.027.551-.228.9-.164.297-.616.574-.855.628l-.013.014c-.218.056-.399.069-.6.07l-12.295.001c-1.028.002-1.881.84-1.883 1.868v15.989c.002 1.028.855 1.866 1.883 1.868h12.352.014.029c.355 0 .859.151 1.17.499.336.374.414.813.413 1.184v12.308c.003 1.028.854 1.868 1.883 1.869h15.974c1.029-.001 1.881-.841 1.883-1.869v-12.308c-.004-.429.173-.909.484-1.213.314-.312.768-.473 1.185-.471h12.322c1.028-.002 1.866-.84 1.868-1.868v-.013-15.975c-.001-1.029-.84-1.869-1.868-1.87h-12.322c-.283-.002-.556-.031-.9-.212-.282-.143-.609-.56-.685-.828v-.013c-.067-.219-.08-.425-.08-.636v-12.294c-.002-1.029-.856-1.881-1.884-1.881h-15.974zm0 .912h15.974c.535 0 .969.434.97.969v12.296.014c.001.262.029.557.129.884 0 .004-.001.009 0 .015.157.554.56 1.076 1.126 1.368v.014c.003.003.011-.001.015 0 .503.263.985.31 1.312.314h12.322c.536 0 .954.418.955.956v15.976c0 .535-.418.967-.955.968h-12.322c-.65-.003-1.312.249-1.812.742h-.015c-.506.498-.763 1.182-.755 1.854v12.309c-.001.536-.435.956-.97.956h-15.974c-.535 0-.969-.419-.969-.956v-12.309c0-.52-.118-1.212-.642-1.797-.528-.594-1.267-.799-1.855-.799-.011 0-.027-.001-.042 0h-.015-12.338c-.537-.001-.969-.418-.97-.955v-15.989c.001-.536.435-.954.97-.955l12.295-.001c.238 0 .522-.019.828-.099h.014c.531-.123 1.096-.484 1.426-1.084.303-.532.338-1.03.342-1.342v-.014c0-.035 0-.027 0-.027v-12.339c.002-.535.42-.967.956-.969z" transform="matrix(.965926 -.258819 .258819 .965926 -47.367723 68.341272)"/></g></svg>

<?xml version="1.0" encoding="utf-8"?>
<svg xmlns="http://www.w3.org/2000/svg">
  <path id="path3" d="M 184.671 119.554 C 182.598 119.554 180.905 121.247 180.905 123.319 L 180.905 236.694 C 180.905 238.767 182.598 240.446 184.671 240.446 L 455.344 240.446 C 457.416 240.446 459.096 238.767 459.096 236.695 L 459.096 123.32 C 459.096 121.247 457.416 119.555 455.343 119.555 L 184.671 119.554 L 184.671 119.554 Z M 184.671 120.467 L 455.344 120.467 C 456.924 120.467 458.183 121.741 458.183 123.32 L 458.183 236.695 C 458.183 238.274 456.923 239.533 455.344 239.533 L 184.671 239.533 C 183.091 239.533 181.818 238.273 181.818 236.694 L 181.818 123.318 C 181.819 121.739 183.092 120.466 184.671 120.467 L 184.671 120.467 Z" style="fill: rgb(30, 30, 30);" transform="matrix(0.965926, -0.258819, 0.258819, 0.965926, -35.683666, 88.955543)"/>
  <path id="path5" d="M 192.958 139.234 C 191.667 139.234 190.619 140.297 190.619 141.588 L 190.619 229.203 C 190.619 230.493 191.667 231.557 192.958 231.557 L 449.698 231.556 C 450.987 231.556 452.036 230.493 452.036 229.203 L 452.036 141.588 C 452.036 140.297 450.987 139.234 449.698 139.234 L 192.958 139.234 L 192.958 139.234 Z M 192.958 140.147 L 449.698 140.147 C 450.493 140.147 451.124 140.79 451.124 141.588 L 451.124 229.203 C 451.124 230 450.493 230.643 449.698 230.643 L 192.958 230.643 C 192.161 230.643 191.531 230 191.531 229.203 L 191.531 141.588 C 191.531 140.791 192.161 140.147 192.958 140.147 Z" style="fill: rgb(30, 30, 30);" transform="matrix(0.965926, -0.258818, 0.258818, 0.965926, -37.034826, 89.482536)"/>
  <path id="path7" d="M 282.884 192.272 C 280.027 192.272 277.706 194.594 277.706 197.449 L 277.706 215.633 C 277.706 218.489 280.027 220.826 282.884 220.826 L 349.733 220.826 C 352.427 220.826 354.568 218.722 354.809 216.091 L 354.91 216.091 L 354.91 215.635 L 354.91 197.449 C 354.91 194.594 352.588 192.273 349.733 192.273 L 282.884 192.272 L 282.884 192.272 Z M 282.884 193.185 L 349.733 193.185 C 352.096 193.185 353.997 195.087 353.997 197.449 L 353.997 215.178 L 353.997 215.634 C 353.997 217.996 352.096 219.913 349.733 219.913 L 282.884 219.913 C 280.522 219.913 278.62 217.996 278.62 215.633 L 278.62 197.449 C 278.62 195.087 280.521 193.185 282.884 193.185 Z" style="fill: rgb(30, 30, 30);" transform="matrix(0.965926, -0.258819, 0.258819, 0.965926, -42.680872, 88.904485)"/>
  <path id="path9" d="M 282.298 195.338 C 281.138 195.338 280.187 196.288 280.187 197.448 L 280.187 215.632 C 280.187 216.793 281.138 217.743 282.298 217.743 L 350.315 217.743 C 351.475 217.743 352.426 216.792 352.426 215.632 L 352.426 197.448 C 352.426 196.288 351.475 195.339 350.315 195.339 L 282.298 195.339 Z M 282.298 196.251 L 350.315 196.251 C 350.982 196.251 351.513 196.784 351.513 197.448 L 351.513 215.633 C 351.513 216.3 350.982 216.832 350.315 216.832 L 282.298 216.832 C 281.632 216.832 281.099 216.3 281.099 215.633 L 281.099 197.448 C 281.1 196.784 281.631 196.251 282.298 196.251 Z" style="fill: rgb(30, 30, 30);" transform="matrix(0.965926, -0.258819, 0.258819, 0.965926, -42.67872, 88.903815)"/>
  <path id="path11" d="M 275.14 175.862 C 272.806 175.862 270.904 177.764 270.904 180.098 L 270.904 185.775 C 270.904 188.11 272.806 189.996 275.14 189.996 L 344.813 189.996 C 347.148 189.996 349.049 188.11 349.049 185.775 L 349.049 180.098 C 349.049 177.764 347.148 175.862 344.813 175.862 L 275.14 175.862 Z M 275.14 176.776 L 344.813 176.776 C 346.655 176.776 348.137 178.258 348.137 180.098 L 348.137 185.775 C 348.137 187.615 346.655 189.083 344.813 189.083 L 275.14 189.083 C 273.3 189.083 271.817 187.614 271.817 185.775 L 271.817 180.098 C 271.817 178.258 273.3 176.776 275.14 176.776 Z" style="fill: rgb(30, 30, 30);" transform="matrix(0.965926, -0.258819, 0.258819, 0.965926, -36.783324, 86.460997)"/>
  <path id="path13" d="M 270.8 159.66 C 268.466 159.66 266.564 161.563 266.564 163.896 L 266.564 169.574 C 266.564 171.907 268.466 173.809 270.8 173.809 L 340.472 173.809 C 342.807 173.809 344.709 171.906 344.709 169.574 L 344.709 163.896 C 344.709 161.562 342.807 159.66 340.472 159.66 L 270.8 159.66 L 270.8 159.66 Z M 270.8 160.573 L 340.472 160.573 C 342.315 160.573 343.796 162.057 343.796 163.896 L 343.796 169.574 C 343.796 171.414 342.314 172.896 340.472 172.896 L 270.8 172.896 C 268.959 172.896 267.477 171.414 267.477 169.574 L 267.476 163.896 C 267.476 162.057 268.959 160.573 270.8 160.573 Z" style="fill: rgb(30, 30, 30);" transform="matrix(0.965926, -0.258818, 0.258818, 0.965926, -32.739674, 84.785569)"/>
  <path id="path15" d="M 262.1 143.702 L 262.1 152.203 C 262.1 154.536 264.003 156.439 266.337 156.439 L 336.01 156.439 C 338.345 156.439 340.246 154.535 340.246 152.203 L 340.246 143.702 L 339.334 143.702 L 339.334 152.203 C 339.334 154.044 337.851 155.526 336.01 155.526 L 266.337 155.526 C 264.497 155.526 263.013 154.043 263.013 152.203 L 263.013 143.702 L 262.1 143.702 Z" style="fill: rgb(30, 30, 30);" transform="matrix(0.965926, -0.258819, 0.258819, 0.965926, -28.578875, 83.062807)"/>
  <path id="path17" d="M 287.342 224.559 C 285.008 224.559 283.106 226.462 283.106 228.796 L 283.106 232.375 L 284.019 232.375 L 284.019 228.796 C 284.019 226.955 285.502 225.473 287.342 225.473 L 357.015 225.473 C 358.857 225.473 360.339 226.955 360.339 228.796 L 360.339 232.348 L 361.252 232.348 L 361.252 228.796 C 361.252 226.462 359.35 224.559 357.015 224.559 L 287.342 224.559 Z" style="fill: rgb(30, 30, 30);" transform="matrix(0.965926, -0.258819, 0.258819, 0.965926, -48.15362, 91.170856)"/>
  <path id="path19" d="M 367.59 173.899 C 366.17 173.899 365.009 175.06 365.009 176.48 L 365.009 202.224 C 365.009 203.645 366.17 204.806 367.59 204.806 L 393.334 204.806 C 394.755 204.806 395.915 203.645 395.915 202.224 L 395.915 176.48 C 395.915 175.06 394.755 173.899 393.334 173.899 L 367.59 173.899 Z M 367.59 174.812 L 393.334 174.812 C 394.261 174.812 395.002 175.554 395.002 176.48 L 395.002 202.224 C 395.002 203.151 394.261 203.893 393.334 203.893 L 367.59 203.893 C 366.664 203.893 365.921 203.151 365.921 202.224 L 365.921 176.48 C 365.921 175.554 366.664 174.812 367.59 174.812 Z" style="fill: rgb(30, 30, 30);" transform="matrix(0.965926, -0.258818, 0.258818, 0.965926, -36.044028, 104.922444)"/>
  <path id="circle21" d="M 380.458 176.738 C 373.493 176.738 367.851 182.395 367.851 189.359 C 367.851 196.323 373.493 201.981 380.458 201.981 C 387.422 201.981 393.08 196.323 393.08 189.359 C 393.08 182.395 387.422 176.738 380.458 176.738 Z M 380.458 177.65 C 386.93 177.65 392.166 182.888 392.166 189.359 C 392.166 195.83 386.93 201.068 380.458 201.068 C 373.988 201.068 368.763 195.83 368.763 189.359 C 368.763 182.888 373.987 177.65 380.458 177.65 Z" style="fill: rgb(30, 30, 30);" transform="matrix(0.965926, -0.258818, 0.258818, 0.965926, -36.045715, 104.923589)"/>
  <path id="path23" d="M 402.266 164.607 C 400.846 164.607 399.685 165.768 399.685 167.188 L 399.685 192.932 C 399.685 194.353 400.847 195.514 402.266 195.514 L 428.01 195.514 C 429.431 195.514 430.592 194.353 430.592 192.932 L 430.592 167.188 C 430.592 165.768 429.431 164.607 428.01 164.607 L 402.266 164.607 Z M 402.266 165.52 L 428.01 165.52 C 428.937 165.52 429.678 166.263 429.678 167.188 L 429.678 192.932 C 429.678 193.859 428.937 194.601 428.01 194.601 L 402.266 194.601 C 401.34 194.601 400.599 193.859 400.599 192.932 L 400.599 167.188 C 400.599 166.263 401.34 165.52 402.266 165.52 Z" style="fill: rgb(30, 30, 30);" transform="matrix(0.965926, -0.258818, 0.258818, 0.965926, -32.457505, 113.5806)"/>
  <path id="circle25" d="M 415.144 167.447 C 408.18 167.447 402.522 173.104 402.522 180.069 C 402.522 187.033 408.18 192.691 415.144 192.691 C 422.108 192.691 427.751 187.033 427.751 180.069 C 427.751 173.105 422.108 167.447 415.144 167.447 Z M 415.144 168.36 C 421.615 168.36 426.838 173.598 426.838 180.069 C 426.838 186.54 421.615 191.778 415.144 191.778 C 408.673 191.778 403.435 186.54 403.435 180.069 C 403.435 173.598 408.673 168.36 415.144 168.36 Z" style="fill: rgb(30, 30, 30);" transform="matrix(0.965926, -0.258818, 0.258818, 0.965926, -32.45978, 113.580443)"/>
  <path id="polyline27" d="M 240.337 139.042 L 240.337 141.966 L 240.337 142.422 L 240.793 142.422 L 251.504 142.422 L 251.961 142.422 L 251.961 141.966 L 251.961 139.042 L 251.047 139.042 L 251.047 141.509 L 241.249 141.509 L 241.249 139.042 L 240.337 139.042 Z" style="fill: rgb(30, 30, 30);" transform="matrix(0.965926, -0.258818, 0.258818, 0.965926, -28.036717, 68.503074)"/>
  <path d="M 291.882 215.962 L 291.88 215.962 L 291.88 215.507 L 291.88 215.05 L 291.882 215.05 L 305.816 215.05 C 308.018 215.046 309.803 213.263 309.807 211.058 L 309.807 211.058 C 309.803 208.853 308.02 207.072 305.816 207.066 L 305.816 207.066 L 291.88 207.066 C 289.676 207.072 287.893 208.853 287.888 211.058 L 287.888 211.058 C 287.892 213.263 289.676 215.046 291.88 215.05 L 291.88 215.05 L 291.88 215.507 L 291.88 215.962 C 289.172 215.962 286.977 213.768 286.977 211.057 L 286.977 211.057 C 286.977 208.348 289.172 206.153 291.88 206.153 L 291.88 206.153 L 305.816 206.153 C 308.525 206.153 310.72 208.348 310.72 211.057 L 310.72 211.057 C 310.72 213.768 308.523 215.962 305.816 215.962 L 305.816 215.962 L 291.882 215.962 L 291.882 215.962 Z" style="fill: rgb(30, 30, 30);" transform="matrix(0.965926, -0.258819, 0.258819, 0.965926, -44.442669, 84.539266)"/>
  <path d="M 326.711 206.629 L 326.711 206.174 L 326.711 205.717 L 340.647 205.717 C 342.85 205.713 344.634 203.93 344.638 201.725 L 344.638 201.725 C 344.634 199.52 342.85 197.738 340.647 197.733 L 340.647 197.733 L 326.711 197.733 C 324.507 197.738 322.723 199.52 322.719 201.725 L 322.719 201.725 C 322.723 203.93 324.507 205.713 326.711 205.717 L 326.711 205.717 L 326.711 206.174 L 326.711 206.629 C 324.003 206.629 321.807 204.434 321.807 201.724 L 321.807 201.724 C 321.807 199.015 324.002 196.82 326.711 196.82 L 326.711 196.82 L 340.647 196.82 C 343.354 196.82 345.55 199.015 345.55 201.724 L 345.55 201.724 C 345.55 204.434 343.354 206.629 340.647 206.629 L 340.647 206.629 L 326.711 206.629 L 326.711 206.629 Z" style="fill: rgb(30, 30, 30);" transform="matrix(0.965926, -0.258818, 0.258818, 0.965926, -40.840222, 93.235592)"/>
  <path id="path35" d="M 227.875 185.507 C 225.281 185.508 223.169 187.617 223.169 190.212 L 223.169 201.367 L 212.014 201.367 C 209.419 201.367 207.309 203.479 207.308 206.073 L 207.308 222.062 C 207.309 224.656 209.419 226.766 212.014 226.767 L 223.168 226.767 L 223.168 237.922 C 223.169 240.516 225.28 242.627 227.875 242.628 L 243.849 242.628 C 246.443 242.627 248.555 240.517 248.555 237.922 L 248.555 226.767 L 259.723 226.767 C 262.318 226.767 264.428 224.656 264.428 222.061 L 264.428 206.073 C 264.428 203.478 262.318 201.367 259.723 201.367 L 248.556 201.367 L 248.556 190.212 C 248.556 187.62 246.441 185.508 243.85 185.508 L 227.876 185.508 L 227.875 185.507 Z M 227.875 186.419 L 243.849 186.419 C 245.952 186.419 247.642 188.111 247.643 190.212 L 247.643 201.823 L 247.643 202.279 L 248.099 202.279 L 259.724 202.279 C 261.826 202.279 263.517 203.97 263.518 206.072 L 263.518 222.06 C 263.517 224.163 261.824 225.855 259.724 225.855 L 248.099 225.855 L 247.643 225.855 L 247.643 226.311 L 247.643 237.921 C 247.642 240.023 245.951 241.714 243.849 241.715 L 227.875 241.715 C 225.773 241.714 224.082 240.023 224.081 237.921 L 224.081 226.311 L 224.081 225.855 L 223.625 225.855 L 212.014 225.855 C 209.912 225.854 208.222 224.163 208.221 222.061 L 208.221 206.072 C 208.221 203.97 209.913 202.279 212.014 202.279 L 223.625 202.279 L 224.079 202.279 L 224.079 201.823 L 224.079 190.212 C 224.081 188.111 225.773 186.419 227.875 186.419 Z M 227.875 188.331 C 226.846 188.332 226.009 189.186 226.005 190.212 L 226.005 202.551 C 226.005 202.551 226.005 202.564 226.005 202.578 C 226.005 202.586 226.005 202.581 226.005 202.592 C 226.001 202.867 225.978 203.143 225.777 203.492 C 225.613 203.789 225.161 204.066 224.922 204.12 L 224.909 204.134 C 224.691 204.19 224.51 204.203 224.309 204.204 L 212.014 204.205 C 210.986 204.207 210.133 205.045 210.131 206.073 L 210.131 222.062 C 210.133 223.09 210.986 223.928 212.014 223.93 L 224.366 223.93 L 224.38 223.93 C 224.382 223.93 224.396 223.93 224.409 223.93 C 224.764 223.93 225.268 224.081 225.579 224.429 C 225.915 224.803 225.993 225.242 225.992 225.613 L 225.992 237.921 C 225.995 238.949 226.846 239.789 227.875 239.79 L 243.849 239.79 C 244.878 239.789 245.73 238.949 245.732 237.921 L 245.732 225.613 C 245.728 225.184 245.905 224.704 246.216 224.4 C 246.53 224.088 246.984 223.927 247.401 223.929 L 259.723 223.929 C 260.751 223.927 261.589 223.089 261.591 222.061 L 261.591 222.048 L 261.591 206.073 C 261.59 205.044 260.751 204.204 259.723 204.203 L 247.401 204.203 C 247.118 204.201 246.845 204.172 246.501 203.991 C 246.219 203.848 245.892 203.431 245.816 203.163 L 245.816 203.15 C 245.749 202.931 245.736 202.725 245.736 202.514 L 245.736 190.22 C 245.734 189.191 244.88 188.339 243.852 188.339 L 227.878 188.339 L 227.875 188.331 Z M 227.875 189.243 L 243.849 189.243 C 244.384 189.243 244.818 189.677 244.819 190.212 L 244.819 202.508 L 244.819 202.522 C 244.82 202.784 244.848 203.079 244.948 203.406 C 244.948 203.41 244.947 203.415 244.948 203.421 C 245.105 203.975 245.508 204.497 246.074 204.789 L 246.074 204.803 C 246.077 204.806 246.085 204.802 246.089 204.803 C 246.592 205.066 247.074 205.113 247.401 205.117 L 259.723 205.117 C 260.259 205.117 260.677 205.535 260.678 206.073 L 260.678 222.049 C 260.678 222.584 260.26 223.016 259.723 223.017 L 247.401 223.017 C 246.751 223.014 246.089 223.266 245.589 223.759 L 245.574 223.759 C 245.068 224.257 244.811 224.941 244.819 225.613 L 244.819 237.922 C 244.818 238.458 244.384 238.878 243.849 238.878 L 227.875 238.878 C 227.34 238.878 226.906 238.459 226.906 237.922 L 226.906 225.613 C 226.906 225.093 226.788 224.401 226.264 223.816 C 225.736 223.222 224.997 223.017 224.409 223.017 C 224.398 223.017 224.382 223.016 224.367 223.017 L 224.352 223.017 L 212.014 223.017 C 211.477 223.016 211.045 222.599 211.044 222.062 L 211.044 206.073 C 211.045 205.537 211.479 205.119 212.014 205.118 L 224.309 205.117 C 224.547 205.117 224.831 205.098 225.137 205.018 C 225.141 205.018 225.147 205.018 225.151 205.018 C 225.682 204.895 226.247 204.534 226.577 203.934 C 226.88 203.402 226.915 202.904 226.919 202.592 L 226.919 202.578 C 226.919 202.543 226.919 202.551 226.919 202.551 L 226.919 190.212 C 226.921 189.677 227.339 189.245 227.875 189.243 L 227.875 189.243 Z" style="fill: rgb(30, 30, 30);" transform="matrix(0.965926, -0.258819, 0.258819, 0.965926, -47.367723, 68.341272)"/>
</svg>
